!!!COM: Music21
!!!OTL: Vals de Arousa
!!!OMV: pezas_valses_valse-de-arousa_valse-de-arousa-partitura.musicxml
**kern
*part1
*staff1
*I"Bagpipes
*I'Bag
*clefG^2
*k[]
*M3/4
=1
!LO:TX:a:t=Allegro
*MM132
!LO:TX:a:t=[quarter]=132
8r
8ee
8ccL
8eeJ
8ccL
8eeJ
=||
8cccL
8bbJ
8ggL
8bbJ
8ggL
8bbJ
=
8bbL
8aaJ
8ffL
8aaJ
8ffL
8aaJ
=
8aaL
8ggJ
8ffL
8ggJ
[4cc
=
8ccL]
8eeJ
8ccL
8eeJ
8ccL
8eeJ
=
8ggL
8ffJ
8eeL
8ffJ
[4b
=
8bL]
8ddJ
8bL
8ddJ
8bL
8ddJ
!!linebreak:original
=
8aaL
8ggJ
8ffL
8ggJ
[4cc
=
8ccL]
8eeJ
8ccL
8eeJ
8ccL
8eeJ
=
8cccL
8bbJ
8ggL
8bbJ
8ggL
8bbJ
=
8bbL
8aaJ
8ffL
8aaJ
8ffL
8aaJ
=
8aaL
8ggJ
8ffL
8ggJ
[4cc
=
8ccL]
8eeJ
8ccL
8eeJ
8ccL
8eeJ
=
8ggL
8ffJ
8eeL
8ffJ
8ggL
8aaJ
!!linebreak:original
=
8bbL
8aaJ
8ggL
8ffJ
8eeL
8ddJ
=
[2.cc
=
8ccL]
8eeJ
8ccL
8eeJ
8ccL
8eeJ
=||
8cccL
8bbJ
8ggL
8bbJ
8ggL
8bbJ
=
8bbL
8aaJ
8ffL
8aaJ
8ffL
8aaJ
=
8aaL
8ggJ
8ffL
8ggJ
[4cc
=
8ccL]
8eeJ
8ccL
8eeJ
8ccL
8eeJ
=
8ggL
8ffJ
8eeL
8ffJ
[4b
!!linebreak:original
=
8bL]
8ddJ
8bL
8ddJ
8bL
8ddJ
!!linebreak:original
=
8aaL
8ggJ
8ffL
8ggJ
[4cc
=
8ccL]
8eeJ
8ccL
8eeJ
8ccL
8eeJ
=
8cccL
8bbJ
8ggL
8bbJ
8ggL
8bbJ
=
8bbL
8aaJ
8ffL
8aaJ
8ffL
8aaJ
=
8aaL
8ggJ
8ffL
8ggJ
[4cc
=
8ccL]
8eeJ
8ccL
8eeJ
8ccL
8eeJ
=
8ggL
8ffJ
8eeL
8ffJ
8ggL
8aaJ
!!linebreak:original
=
8bbL
8aaJ
8ggL
8ffJ
8eeL
8ddJ
=
[2.cc
=
2cc]
8ddL
8eeJ
=||
2ff
8ffL
8ggJ
=
4aa
4gg
4ff
=
8ggL
8ffJ
[2ee
=
2ee]
8ddL
8eeJ
=
2ff
8ffL
8ggJ
=
4aa
4gg
4aa
=
[2.bb
!!pagebreak:original
=
2bb]
8ffL
8ggJ
=
2aa
8aaL
8bbJ
=
4ccc
4bb
4aa
=
4gg
4ee
4gg
=
4bb
4aa
4gg
=
4ff
4dd
4ff
=
4aa
4gg
4ff
=
[2.ee
=
2ee]
8ddL
8eeJ
=||
2ff
8ffL
8ggJ
=
4aa
4gg
4ff
=
8ggL
8ffJ
[2ee
!!linebreak:original
=
2ee]
8ddL
8eeJ
=
2ff
8ffL
8ggJ
=
4aa
4gg
4aa
=
[2.bb
!!linebreak:original
=
2bb]
8ffL
8ggJ
=
2aa
8aaL
8bbJ
=
4ccc
4bb
4aa
=
4gg
4ee
4gg
=
4bb
4aa
4gg
=
4ff
4dd
4ff
=
4aa
4gg
4ff
=
[2.ee
=
8eeL]
8eeJ
8ccL
8eeJ
8ccL
8eeJ
==
*-
!!!system-decoration: s1,s2
